svgs/microsoft_authenticator.svg

<svg id="Layer_1" data-name="Layer 1" xmlns="http://www.w3.org/2000/svg" viewBox="0 0 24 24">
  <path d="M19.52917,8.78491A3.16156,3.16156,0,0,0,17.613,7.392a5.61754,5.61754,0,0,0-11.226,0A3.16159,3.16159,0,0,0,4.47083,8.78491a4.11308,4.11308,0,0,0-.57746,2.626,13.07268,13.07268,0,0,0,1.51361,5.363,10.69924,10.69924,0,0,0,1.28461,1.88221,13.80193,13.80193,0,0,0,2.72534,2.43548,4.12655,4.12655,0,0,0,5.16614,0,13.80361,13.80361,0,0,0,2.72534-2.43548A10.69924,10.69924,0,0,0,18.593,16.77386a13.07268,13.07268,0,0,0,1.51361-5.363A4.11308,4.11308,0,0,0,19.52917,8.78491ZM12,4.29279a3.4152,3.4152,0,0,1,3.34528,2.728C13.94257,6.9054,12.6745,6.88165,12,6.88165s-1.94257.02375-3.34528.1391A3.41525,3.41525,0,0,1,12,4.29279Zm2.746,7.02337A2.746,2.746,0,1,1,12,8.57013,2.746,2.746,0,0,1,14.746,11.31616Zm-.76947,8.88928A3.25311,3.25311,0,0,1,12,20.92651a3.25491,3.25491,0,0,1-1.977-.72107A12.44361,12.44361,0,0,1,7.2002,17.57855a5.61847,5.61847,0,0,1,9.59967,0A12.43729,12.43729,0,0,1,13.97656,20.20544Z"/>
</svg>

<svg xmlns="http://www.w3.org/2000/svg" data-name="Layer 1" viewBox="0 0 24 24"><path d="M19.53 8.785a3.162 3.162 0 0 0-1.917-1.393 5.618 5.618 0 0 0-11.226 0 3.162 3.162 0 0 0-1.916 1.393 4.113 4.113 0 0 0-.578 2.626 13.073 13.073 0 0 0 1.514 5.363 10.7 10.7 0 0 0 1.285 1.882 13.802 13.802 0 0 0 2.725 2.436 4.127 4.127 0 0 0 5.166 0 13.804 13.804 0 0 0 2.725-2.436 10.7 10.7 0 0 0 1.285-1.882 13.073 13.073 0 0 0 1.514-5.363 4.113 4.113 0 0 0-.578-2.626M12 4.293a3.415 3.415 0 0 1 3.345 2.728c-1.402-.116-2.67-.14-3.345-.14s-1.943.024-3.345.14A3.415 3.415 0 0 1 12 4.293m2.746 7.023A2.746 2.746 0 1 1 12 8.57a2.746 2.746 0 0 1 2.746 2.746m-.77 8.89a3.253 3.253 0 0 1-1.976.72 3.255 3.255 0 0 1-1.977-.72A12.444 12.444 0 0 1 7.2 17.578a5.618 5.618 0 0 1 9.6 0 12.437 12.437 0 0 1-2.823 2.626Z"/></svg>
